assets/ai/ai-philpapers.svg

<svg xmlns="http://www.w3.org/2000/svg" width="100%" height="100%" viewBox="-43.52 -43.52 599.04 599.04"><path d="M 281.1554,248.03682 A 68.31745,68.310912 0 0 0 310.11679,231.813 c 19.80361,-17.99355 29.70388,-41.9537 29.70388,-71.87698 A 117.70966,117.69839 0 0 0 331.16872,114.28938 84.382038,84.373965 0 0 0 306.45893,80.4671 78.394491,78.386985 0 0 0 272.89418,63.999997 H 205.16914 V 252.41796 h 29.70392 c 20.03854,0.0128 35.46585,-1.44813 46.28279,-4.3807 z M 349.49475,64.019238 a 104.474,104.464 0 0 1 20.68219,12.529589 c 28.71464,21.830411 43.07125,50.943873 43.07125,87.340863 0,37.00339 -14.56143,64.09299 -43.68424,81.27056 -15.16131,8.89745 -33.55994,14.25597 -55.19425,16.07509 -6.8808,0.60638 -23.45971,0.90869 -49.73588,0.90869 h -59.40908 v 108.87378 c 0,20.61764 1.1634,35.93281 3.48982,45.9441 a 51.32811,51.323197 0 0 0 12.88432,24.70742 53.281079,53.275981 0 0 0 7.33363,6.3298 H 448 V 64.019238 H 349.4943 Z M 128.73748,84.438265 A 49.650794,49.646039 0 0 0 108.72429,66.394868 55.334247,55.328956 0 0 0 102.98765,64.018815 H 64.000003 V 448 h 51.054657 a 53.251111,53.246016 0 0 0 7.33363,-6.32981 49.087893,49.083199 0 0 0 12.99502,-24.55993 c 2.22754,-9.90063 3.34109,-25.26388 3.34109,-46.09289 V 147.51624 a 269.16148,269.13573 0 0 0 -2.28355,-40.1888 62.108937,62.102992 0 0 0 -7.70292,-22.889594 z"/></svg>

<svg xmlns="http://www.w3.org/2000/svg" width="100%" height="100%" viewBox="-43.52 -43.52 599.04 599.04"><path d="M281.155 248.037a68.317 68.31 0 0028.962-16.224c19.803-17.994 29.704-41.954 29.704-71.877a117.71 117.698 0 00-8.652-45.647 84.382 84.374 0 00-24.71-33.822A78.394 78.387 0 00272.894 64H205.17v188.418h29.704c20.039.013 35.466-1.448 46.283-4.38zm68.34-184.018a104.474 104.464 0 0120.682 12.53c28.715 21.83 43.071 50.944 43.071 87.34 0 37.004-14.561 64.094-43.684 81.271-15.161 8.898-33.56 14.256-55.194 16.075-6.881.607-23.46.909-49.736.909h-59.41v108.874c0 20.617 1.164 35.933 3.49 45.944a51.328 51.323 0 0012.885 24.707 53.281 53.276 0 007.334 6.33H448V64.02h-98.506zM128.737 84.44a49.65 49.646 0 00-20.013-18.044 55.334 55.329 0 00-5.736-2.376H64V448h51.055a53.251 53.246 0 007.333-6.33 49.088 49.083 0 0012.995-24.56c2.228-9.9 3.341-25.264 3.341-46.093v-223.5a269.161 269.136 0 00-2.283-40.19 62.109 62.103 0 00-7.703-22.89z"/></svg>
